X:1
T:Evening Praise, 77.77.4 refrain
T:Evening Praise, 77.77.4 refrain
T:William Fiske Sherwin, 1877
T:Public Domain Courtesy of the Cyber Hymnal™
C:William Fiske Sherwin, 1877
Z:Public Domain
Z:Courtesy of the Cyber Hymnal™
%%score ( 1 2 ) ( 3 4 )
L:1/8
Q:1/4=100
M:6/8
K:Ab
V:1 treble 
V:2 treble 
V:3 bass 
V:4 bass 
V:1
 [CA]2 [CA] [DA]2 [DF] | [CE]2 [=B,=D] [CE]3 | [CA]2 [CA] [DA]2 [DF] | [CE]2 [=B,=D] [CE]3 | %4
 [DG]2 [DG] [CA]2 [CA] | [DB][CA][EB] [Ec]3 | [Ed]2 [Ed] [Ec]2 [Ec] | =dc[Ad] [Ge]2 [Ec] | %8
 [EB]3 [=DB]3 | E3- E2 z ||"^Refrain" [CA]2 [CE] [CA]2 [CE] | [Ec]2 [DB] [CA]3 | [Ae]3 [Ed]2 [EB] | %13
 [EA]3- [EA]2 z | [FA]2 [=EG] [FA]2 [DF] | [CE]2 [EA] [Ec]3 | [EB]2 [E=A] [EB]2 [EG] | %17
 [EA]2 [Ec] [Ae]2 [Af] | [Ae]3 [EG]3 | [EA]6 |] x6 |] %21
V:2
 x6 | x6 | x6 | x6 | x6 | x6 | x6 | A2 x4 | x6 | E3- E2 x || x6 | x6 | x6 | x6 | x6 | x6 | x6 | %17
 x6 | x6 | x6 |] x6 |] %21
V:3
 [A,,E,]2 [A,,E,] [A,,F,]2 [A,,A,] | [A,,A,]2 [A,,F,] [A,,E,]3 | %2
 [A,,E,]2 [A,,E,] [A,,F,]2 [A,,A,] | [A,,A,]2 [A,,F,] (E,2 A,) | [E,B,]2 [E,B,] [E,A,]2 [E,A,] | %5
 G,A,[E,G,] A,3 | [G,B,]2 [G,B,] A,2 A, | [F,B,]2 [B,,B,] [E,B,]2 x | [A,,A,] x5 | %9
 [B,,G,]3 [B,,A,]3 || [E,G,]3- [E,G,]2 z | [A,,A,]2 [A,,A,] [A,,E,]2 [A,,A,] | A,2 A, A,3 | %13
 [E,C]3 [E,B,]2 [E,D] | [A,C]6 | [D,A,]2 [D,B,] [D,A,]2 [D,A,] | [A,,A,]2 [A,C] A,3 | %17
 [E,D]2 [E,C] [E,D]2 [E,B,] | [A,C]2 A, [A,C]2 [D,D] | [E,C]3 (B,2 D) |] [A,,C]6 |] %21
V:4
 x6 | x6 | x6 | x3 A,,3 | x6 | E,2 A,3 x | x3 A,2 A, | x6 | x6 | x6 || x6 | x6 | A,2 A, A,3 | x6 | %14
 x6 | x6 | x3 A,3 | x6 | x2 A, x3 | x3 E,3 |] x6 |] %21

